X:8673
T:Kitty Goes a Milking
M:C
L:1/8
K:G Major
BABc|dGG2 dGBc|dGG2 FGAc|dGG2 d2eg|fdcA:|!
BABc|dgg2 agg2|dggf d2Bc|dgg2 agg2|dcAB c2Bc|!
dgg2 agg2|dggf d2Bc|defg abag|fdcA|]!


